!!!SOCIAL_FUNCTION:	songs with the corn dance
!!!PDT:	1956
!!!OTL: No_12_Corn_Dance_Song_(h).krn
!!!LANG: Non-Tone
!!!LING_GROUP: Muskogean
!!!REG: Florida
**kern
*staff1
=1-
*clefF4
*k[b-e-a-d-g-]
*M3/4
8.B-\L
16B-\Jk
4A-\
16B-\LK
8A-\
16A-\Jk
=2||
*M2/4
4A-\
8F\
16r
16A-\
=3
16A-\LL
16F\
16E-\
16G-\JJ
16E-\LL
16D-\J
8D-\J
=4
16E-\LL
16D-\J
8D-\J
8D-\L
8A-\J
=5
8.F\L
16F\Jk
16E-\LL
16D-\J
8D-\J
=6
16E-\LL
16D-\J
8D-\J
8.D-/L
16AA-/Jk
=7
8.D-\L
16D-\Jk
4D-\
=8
16E-\LL
16D-\J
8D-\J
16D-\
16r
8D-\
=9
4A-\
8G-\L
8E-\J
=10||
*M3/4
4.E-\
8E-\
8D-\L
8D-\J
=11||
*M5/8
8D-/L
8D-/
8AA-/
8C/
16AA-/L
16AA-/JJ
=12||
*M2/4
4AA-/
8AA-/
16r
16A-\
=13
16A-\LL
16F\
16E-\
16G-\JJ
16E-\LL
16D-\J
8D-\J
=14
16E-\LL
16D-\J
8D-\J
8.D-/L
16AA-/Jk
=15
8.D-\L
16D-\Jk
4D-\
=16
16E-\LL
16D-\J
8D-\J
16D-\
16r
8D-\
=17
8.B-\L
16B-\Jk
4A-\
=18||
*M3/4
16B-\LL
16A-\J
8A-\J
4A-\
8E-\
16r
16A-\
=19||
*M2/4
16A-\LL
16F\
16E-\
16G-\JJ
16E-\LL
16D-\J
8D-\J
=20
16E-\LL
16D-\J
8D-\J
8D-\L
8A-\J
=21
8G-\L
24E-\K
12G-\J
16E-\LL
16D-\J
8D-\J
=22
16E-\LL
16D-\J
8D-\J
8.D-/L
16AA-/Jk
=23
8.D-\L
16D-\Jk
4D-\
=24
16E-\LL
16D-\J
8D-\J
8D-\
8r
=25||
*M3/4
(4.A-\
8D-\)
4A-\
=26
(4.A-\
8D-\)
4A-\
=27
2r
(8.A-\L
16B-\Jk)
=28
2A-\
8A-\L
8G-\J
=29
16F\LK
8.F\J
4F\
8.A-\L
16G-\Jk
=30
4.F\
8D-\
8.F\L
16D-\Jk
=31
8D-\L
8D-\J
8D-\
8r
8.A-\L
16G-\Jk
=32
4.F\
8D-\
8.F\L
16D-\Jk
=33
8D-\L
8D-\J
8D-\
8r
8.F\L
16D-\Jk
=34
4F\
4D-\
8F\L
8D-\J
=35||
*M2/4
8D-\L
8D-\J
4D-\
=36
2C/
=37
4C/
8C/
8r
=38
2D-\
=39||
*M3/4
2D-\
8.A-\L
16F\Jk
=40
4.F\
8D-\
8.F\L
16D-\Jk
=41
8D-\L
8D-\J
8D-\
8r
8.F\L
16D-\Jk
=42
!!pagebreak:default
4.F\
8D-\
8F\L
8D-\J
=43||
*M2/4
8D-\L
8D-\J
4D-\
=44
*M3/4
4.A-\
8D-\
4A-\
=45
4.A-\
8D-\
4A-\
==
*-
